files/I001C001_180615OL.cube
TITLE Sony RAW Viewer Version 2.3.0.09150
LUT_3D_SIZE 9
0.040000 0.038869 0.029575
0.049018 0.039463 0.029965
0.121772 0.031731 0.034758
0.365784 0.076594 0.076596
0.548028 0.114756 0.114759
0.619356 0.129691 0.129694
0.633829 0.132722 0.132726
0.633829 0.132722 0.132726
0.633829 0.132722 0.132726
0.040853 0.050371 0.031305
0.056541 0.053035 0.031017
0.108406 0.051236 0.032479
0.340671 0.071335 0.071338
0.548145 0.114780 0.114784
0.619366 0.129693 0.129697
0.633829 0.132722 0.132726
0.633829 0.132722 0.132726
0.633829 0.132722 0.132726
0.042558 0.126211 0.042735
0.040782 0.120591 0.040660
0.133181 0.145221 0.053166
0.394525 0.144087 0.089183
0.532446 0.111493 0.111496
0.619383 0.129697 0.129700
0.633829 0.132722 0.132726
0.633829 0.132722 0.132726
0.633829 0.132722 0.132726
0.105237 0.312106 0.105226
0.101824 0.301981 0.101812
0.148184 0.372631 0.126184
0.436675 0.461199 0.169944
0.765366 0.455610 0.205290
0.716685 0.150080 0.150076
0.633829 0.132722 0.132726
0.633829 0.132722 0.132726
0.633829 0.132722 0.132726
0.135279 0.401200 0.135264
0.137632 0.408180 0.137616
0.169737 0.492902 0.166259
0.424818 0.618236 0.216755
0.799760 0.733312 0.279525
0.993731 0.739086 0.301533
0.891188 0.370882 0.208328
0.633829 0.132722 0.132726
0.633829 0.132722 0.132726
0.150478 0.446276 0.150461
0.168590 0.499991 0.168571
0.214847 0.564635 0.190946
0.430048 0.659285 0.229903
0.768771 0.773854 0.288175
0.990899 0.833772 0.325904
0.992203 0.844451 0.336569
0.992264 0.703650 0.297189
0.633829 0.132722 0.132726
0.215855 0.639731 0.234554
0.223781 0.662530 0.235376
0.250986 0.688504 0.238153
0.436252 0.746095 0.258365
0.732530 0.824123 0.299911
0.966564 0.850478 0.327967
0.992203 0.860060 0.340153
0.992203 0.865777 0.343664
0.992203 0.834770 0.334944
0.370339 0.815434 0.503650
0.398941 0.822934 0.502740
0.440555 0.833724 0.501177
0.542724 0.860576 0.495732
0.735636 0.906128 0.478820
0.931098 0.939490 0.427022
0.992203 0.936037 0.359250
0.992203 0.865573 0.343540
0.992203 0.865777 0.343664
0.781764 0.980986 0.847517
0.787207 0.982023 0.847459
0.795619 0.983622 0.847365
0.820016 0.988231 0.847003
0.872894 0.994722 0.843977
0.955053 0.992203 0.830142
0.992203 0.992203 0.798573
0.992203 0.992205 0.707064
0.992203 0.865830 0.343677
0.039617 0.039833 0.043856
0.050787 0.040105 0.046746
0.126466 0.033370 0.049520
0.368299 0.077120 0.077122
0.548422 0.114838 0.114842
0.619356 0.129691 0.129695
0.633829 0.132722 0.132726
0.633829 0.132722 0.132726
0.633829 0.132722 0.132726
0.036290 0.051894 0.047815
0.050391 0.050132 0.042099
0.099347 0.043728 0.039958
0.339581 0.071107 0.071113
0.548579 0.114871 0.114874
0.619367 0.129693 0.129697
0.633829 0.132722 0.132726
0.633829 0.132722 0.132726
0.633829 0.132722 0.132726
0.035657 0.105585 0.042141
0.038055 0.096121 0.032593
0.122660 0.113955 0.043285
0.362803 0.123831 0.080834
0.526108 0.110165 0.110168
0.619384 0.129697 0.129700
0.633829 0.132722 0.132726
0.633829 0.132722 0.132726
0.633829 0.132722 0.132726
0.094931 0.281538 0.094920
0.091415 0.271111 0.091404
0.140240 0.333304 0.113085
0.422806 0.409464 0.153888
0.747617 0.408604 0.192765
0.718168 0.150392 0.150387
0.633829 0.132722 0.132726
0.633829 0.132722 0.132726
0.633829 0.132722 0.132726
0.130756 0.387786 0.130742
0.133254 0.395195 0.133239
0.165313 0.477747 0.161165
0.420377 0.599297 0.210600
0.792325 0.708156 0.271858
0.993765 0.739230 0.301574
0.891738 0.372072 0.208612
0.633829 0.132722 0.132726
0.633829 0.132722 0.132726
0.158172 0.469094 0.158154
0.174641 0.517938 0.174622
0.195003 0.578320 0.194979
0.422051 0.664795 0.231229
0.768335 0.770885 0.287286
0.990744 0.827770 0.324281
0.992203 0.844462 0.336572
0.992264 0.703900 0.297261
0.633829 0.132722 0.132726
0.220046 0.650909 0.283484
0.227777 0.674073 0.280573
0.245102 0.700572 0.274688
0.425201 0.758851 0.271990
0.728514 0.837351 0.303541
0.965177 0.865676 0.332000
0.992203 0.860147 0.340206
0.992203 0.865777 0.343664
0.992203 0.834790 0.334950
0.368620 0.818341 0.517405
0.396999 0.825824 0.516564
0.438500 0.836609 0.515182
0.541353 0.863549 0.510578
0.734861 0.909156 0.494296
0.930318 0.942639 0.445970
0.992203 0.940379 0.361756
0.992203 0.865596 0.343554
0.992203 0.865777 0.343664
0.781653 0.981360 0.850426
0.787091 0.982407 0.850439
0.795495 0.984022 0.850455
0.819877 0.988638 0.850188
0.872745 0.994310 0.847216
0.954948 0.992203 0.833570
0.992203 0.992203 0.802565
0.992203 0.992204 0.712903
0.992203 0.865836 0.343679
0.030627 0.037183 0.185024
0.044307 0.034263 0.185840
0.138485 0.037047 0.200743
0.394453 0.084029 0.179544
0.566453 0.118666 0.125173
0.619442 0.129709 0.129713
0.633829 0.132722 0.132726
0.633829 0.132722 0.132726
0.633829 0.132722 0.132726
0.024849 0.054089 0.146456
0.039154 0.047550 0.132165
0.098272 0.032940 0.127812
0.362143 0.076620 0.138548
0.567389 0.118873 0.126661
0.619464 0.129714 0.129717
0.633829 0.132722 0.132726
0.633829 0.132722 0.132726
0.633829 0.132722 0.132726
0.040234 0.112848 0.133865
0.035940 0.100953 0.118237
0.105749 0.114910 0.116537
0.360460 0.091369 0.097350
0.533307 0.111676 0.112077
0.619229 0.129664 0.129668
0.633829 0.132722 0.132726
0.633829 0.132722 0.132726
0.633829 0.132722 0.132726
0.100286 0.296674 0.128505
0.094376 0.279540 0.108886
0.109757 0.325146 0.109914
0.403252 0.373803 0.142070
0.706192 0.337580 0.172634
0.735785 0.154088 0.154077
0.633829 0.132722 0.132726
0.633829 0.132722 0.132726
0.633829 0.132722 0.132726
0.139128 0.412601 0.139838
0.140103 0.415508 0.140107
0.165018 0.489400 0.165000
0.402734 0.604620 0.211284
0.784357 0.683357 0.264288
0.980549 0.698418 0.289830
0.892653 0.374123 0.209097
0.633829 0.132722 0.132726
0.633829 0.132722 0.132726
0.166135 0.492415 0.178940
0.182976 0.542601 0.185568
0.203090 0.602309 0.203070
0.392454 0.694330 0.239227
0.760258 0.793758 0.293202
0.990416 0.819460 0.322031
0.992203 0.844477 0.336576
0.992263 0.704239 0.297358
0.633829 0.132722 0.132726
0.225415 0.664903 0.343264
0.233099 0.688131 0.340488
0.242503 0.714915 0.335097
0.409231 0.774675 0.319768
0.722420 0.855934 0.309832
0.963085 0.885621 0.337319
0.992203 0.860221 0.340250
0.992203 0.865777 0.343664
0.992203 0.834823 0.334959
0.366126 0.822727 0.538367
0.394156 0.830188 0.537643
0.435440 0.840935 0.536427
0.539025 0.867823 0.532237
0.733645 0.913667 0.517914
0.929136 0.947243 0.472680
0.992203 0.946537 0.370820
0.992203 0.865620 0.343568
0.992203 0.865777 0.343664
0.781497 0.981901 0.854692
0.786934 0.982948 0.854711
0.795338 0.984562 0.854737
0.819691 0.989210 0.854729
0.872514 0.993669 0.852266
0.954786 0.992203 0.838910
0.992203 0.992203 0.808780
0.992203 0.992203 0.721965
0.992203 0.865845 0.343681
0.097674 0.053488 0.388528
0.114024 0.056269 0.403380
0.192719 0.067499 0.444254
0.436952 0.105000 0.473408
0.603567 0.134190 0.449510
0.656112 0.141665 0.371444
0.633831 0.132722 0.132726
0.633829 0.132722 0.132726
0.633829 0.132722 0.132726
0.075466 0.048859 0.360213
0.090402 0.048038 0.347745
0.149527 0.056221 0.379648
0.399673 0.095781 0.428897
0.603839 0.134297 0.450821
0.656297 0.141763 0.373463
0.633831 0.132722 0.132726
0.633829 0.132722 0.132726
0.633829 0.132722 0.132726
0.064726 0.132109 0.403650
0.061171 0.121670 0.387893
0.119072 0.106726 0.400072
0.366676 0.087681 0.390094
0.572751 0.125527 0.380405
0.656588 0.141916 0.376629
0.633831 0.132722 0.132726
0.633829 0.132722 0.132726
0.633829 0.132722 0.132726
0.118691 0.330514 0.412934
0.111318 0.310047 0.386794
0.123206 0.347749 0.392255
0.378216 0.380051 0.381263
0.699661 0.304354 0.327793
0.678280 0.143169 0.239507
0.633830 0.132722 0.132726
0.633829 0.132722 0.132726
0.633829 0.132722 0.132726
0.162689 0.473102 0.370615
0.162582 0.474346 0.347623
0.185786 0.545168 0.344282
0.329993 0.654820 0.320590
0.775143 0.721015 0.277870
0.949616 0.658795 0.276381
0.914608 0.426465 0.221630
0.633829 0.132722 0.132726
0.633829 0.132722 0.132726
0.183851 0.537162 0.381178
0.199972 0.586508 0.375979
0.219352 0.645432 0.370865
0.318081 0.739663 0.338147
0.744323 0.844967 0.306987
0.986994 0.865568 0.334110
0.992203 0.820285 0.329578
0.992262 0.705296 0.297660
0.633829 0.132722 0.132726
0.237970 0.696728 0.469313
0.245489 0.719615 0.468715
0.254174 0.746120 0.465830
0.380883 0.806701 0.457087
0.709883 0.889390 0.428541
0.953471 0.928663 0.359059
0.992203 0.897422 0.349842
0.992203 0.865777 0.343664
0.992203 0.834922 0.334987
0.359442 0.834183 0.594801
0.386466 0.841613 0.594559
0.427138 0.852311 0.594057
0.532649 0.879216 0.591793
0.729352 0.925315 0.581326
0.925540 0.959386 0.542204
0.992203 0.961945 0.444781
0.992203 0.878529 0.346906
0.992203 0.865777 0.343664
0.781035 0.983525 0.867498
0.786471 0.984570 0.867536
0.794872 0.986185 0.867591
0.819186 0.990824 0.867666
0.871942 0.992210 0.865868
0.954306 0.992203 0.854937
0.992203 0.992203 0.827131
0.992203 0.992203 0.748790
0.992203 0.907068 0.354348
0.073834 0.073740 0.553874
0.079327 0.077249 0.579876
0.228952 0.092684 0.639307
0.541300 0.138669 0.709312
0.699357 0.164638 0.701895
0.734126 0.169482 0.677472
0.705616 0.160390 0.602452
0.633845 0.132725 0.132738
0.633829 0.132722 0.132726
0.067965 0.067879 0.509851
0.097187 0.068484 0.507626
0.183711 0.079025 0.552903
0.450678 0.118550 0.630214
0.699753 0.164733 0.702331
0.734457 0.169569 0.677963
0.705783 0.160444 0.602916
0.633846 0.132725 0.132740
0.633829 0.132722 0.132726
0.084306 0.147763 0.568879
0.079872 0.122254 0.559743
0.145163 0.085919 0.585010
0.385950 0.107233 0.607676
0.615671 0.144398 0.608670
0.734979 0.169705 0.678739
0.706045 0.160529 0.603647
0.633846 0.132726 0.132743
0.633829 0.132722 0.132726
0.129764 0.327811 0.628566
0.124451 0.310528 0.617835
0.135600 0.343370 0.653570
0.374536 0.361203 0.692731
0.692911 0.273585 0.687469
0.689086 0.155978 0.574882
0.706857 0.160791 0.605910
0.633847 0.132726 0.132754
0.633829 0.132722 0.132726
0.185161 0.515651 0.643872
0.186343 0.520466 0.636743
0.208061 0.586976 0.664770
0.254947 0.688130 0.694569
0.742658 0.735174 0.697056
0.918356 0.647290 0.646126
0.824567 0.222217 0.538809
0.633842 0.132725 0.132730
0.633829 0.132722 0.132726
0.205975 0.585082 0.623362
0.222664 0.636557 0.635198
0.242121 0.696217 0.648559
0.275290 0.797999 0.658782
0.714258 0.907498 0.649555
0.964752 0.934515 0.591523
0.992203 0.901277 0.433957
0.992220 0.721643 0.302351
0.633829 0.132722 0.132726
0.257255 0.741296 0.671652
0.264949 0.764774 0.676619
0.273967 0.792306 0.681580
0.347850 0.852028 0.686108
0.690480 0.934063 0.681615
0.936430 0.975604 0.640435
0.992203 0.974270 0.533228
0.992203 0.892052 0.350220
0.992203 0.835227 0.335072
0.343257 0.855707 0.709798
0.368026 0.863084 0.710608
0.408100 0.873721 0.711677
0.519571 0.900767 0.713816
0.718397 0.947166 0.712373
0.915468 0.982667 0.690844
0.992203 0.991613 0.629354
0.992203 0.963187 0.419553
0.992203 0.865777 0.343664
0.779420 0.987440 0.899193
0.784872 0.988499 0.899350
0.793297 0.990134 0.899590
0.817587 0.994813 0.900204
0.870431 0.992204 0.899973
0.953297 0.992203 0.893759
0.992203 0.992203 0.872672
0.992203 0.992203 0.813313
0.992203 0.970425 0.462258
0.092630 0.172145 0.609422
0.098125 0.186655 0.638139
0.209775 0.218573 0.710386
0.562701 0.236095 0.789632
0.777832 0.223590 0.815163
0.841560 0.253227 0.835496
0.854150 0.266182 0.841972
0.835580 0.200425 0.814911
0.633866 0.132735 0.132999
0.104880 0.221821 0.637231
0.105530 0.219769 0.648796
0.155427 0.233971 0.707060
0.500945 0.235114 0.778659
0.767996 0.224181 0.814124
0.841570 0.253238 0.835501
0.854150 0.266182 0.841972
0.835651 0.200544 0.815016
0.633866 0.132735 0.133000
0.124680 0.294446 0.676022
0.122650 0.284528 0.680453
0.124275 0.272210 0.727111
0.441951 0.207782 0.778206
0.719280 0.184587 0.794183
0.841586 0.253254 0.835510
0.854150 0.266182 0.841972
0.835763 0.200735 0.815180
0.633866 0.132735 0.133002
0.150084 0.383556 0.708936
0.148140 0.376115 0.709986
0.161945 0.415498 0.758046
0.387558 0.445037 0.819226
0.725615 0.389817 0.848626
0.800561 0.187890 0.790500
0.854150 0.266182 0.841972
0.836113 0.201347 0.815695
0.633867 0.132735 0.133009
0.192588 0.524131 0.750208
0.195662 0.533136 0.758315
0.215490 0.593092 0.797810
0.257136 0.678974 0.858488
0.729728 0.708719 0.908446
0.902264 0.609486 0.898782
0.853533 0.266073 0.817699
0.837183 0.203380 0.817266
0.633869 0.132736 0.133028
0.219408 0.610723 0.765153
0.234161 0.655881 0.786027
0.254269 0.716720 0.817511
0.288620 0.820223 0.863899
0.692374 0.927870 0.912380
0.946533 0.953441 0.919728
0.992203 0.920558 0.891042
0.933339 0.537596 0.807377
0.633875 0.132740 0.133078
0.270940 0.768811 0.827294
0.278293 0.791193 0.835941
0.287179 0.818222 0.846166
0.311728 0.878210 0.870205
0.672517 0.962240 0.902159
0.921224 0.992203 0.905847
0.992203 0.992203 0.880650
0.992203 0.992204 0.772325
0.992210 0.808951 0.326617
0.311139 0.879891 0.854268
0.321767 0.887228 0.856896
0.353970 0.897808 0.860695
0.496034 0.925084 0.870666
0.708097 0.971290 0.885354
0.904235 0.992203 0.886551
0.992203 0.992203 0.863049
0.992203 0.992203 0.802657
0.992203 0.961758 0.411540
0.775924 0.993285 0.950748
0.781430 0.994396 0.951152
0.789938 0.996078 0.951776
0.814252 0.992209 0.953493
0.867555 0.992203 0.956422
0.950654 0.992203 0.957505
0.992203 0.992203 0.951048
0.992203 0.992203 0.922759
0.992203 0.992203 0.805468
0.114758 0.258834 0.657414
0.116915 0.261722 0.675041
0.139148 0.281592 0.727687
0.466751 0.276563 0.788168
0.735844 0.227490 0.811391
0.842009 0.253677 0.835725
0.854150 0.266182 0.841972
0.854150 0.266182 0.841972
0.854150 0.266182 0.841972
0.124518 0.293797 0.675967
0.127383 0.299922 0.693483
0.138906 0.323517 0.744416
0.451784 0.328140 0.804505
0.724418 0.238542 0.814341
0.842018 0.253688 0.835731
0.854150 0.266182 0.841972
0.854150 0.266182 0.841972
0.854150 0.266182 0.841972
0.133984 0.326922 0.691999
0.137762 0.336781 0.709270
0.150933 0.373117 0.762292
0.434320 0.400013 0.827862
0.733059 0.326910 0.845598
0.838458 0.250136 0.833910
0.854150 0.266182 0.841972
0.854150 0.266182 0.841972
0.854150 0.266182 0.841972
0.156361 0.403457 0.722000
0.160787 0.415896 0.737929
0.177855 0.466008 0.788850
0.388427 0.517320 0.855411
0.743061 0.500554 0.899015
0.855135 0.354566 0.870703
0.854150 0.266182 0.841972
0.854150 0.266182 0.841972
0.854150 0.266182 0.841972
0.193027 0.523785 0.761073
0.202339 0.551680 0.782045
0.224110 0.617117 0.827745
0.280941 0.702001 0.892724
0.735624 0.742336 0.951742
0.914367 0.680988 0.957941
0.916935 0.481553 0.915339
0.854150 0.266182 0.841972
0.854150 0.266182 0.841972
0.228413 0.634822 0.803516
0.242396 0.677174 0.827180
0.261839 0.735865 0.859678
0.293742 0.828564 0.911982
0.695518 0.922294 0.974236
0.935331 0.940736 0.995083
0.992204 0.910369 0.995691
0.956531 0.631801 0.948259
0.854150 0.266182 0.841972
0.278173 0.786335 0.875579
0.284722 0.806093 0.885457
0.292926 0.830774 0.898178
0.318768 0.887060 0.928803
0.671255 0.967661 0.974074
0.914805 0.992203 0.992763
0.992203 0.992203 0.992203
0.992203 0.992203 0.994450
0.992234 0.866933 0.976232
0.320267 0.895201 0.928416
0.331363 0.902318 0.932288
0.366525 0.912474 0.937838
0.500537 0.938573 0.952277
0.704441 0.982286 0.976394
0.898636 0.992203 0.995661
0.992203 0.992203 0.992208
0.992203 0.992203 0.994931
0.992203 0.992203 0.977528
0.775504 0.994254 0.989900
0.780902 0.993148 0.990474
0.789248 0.992209 0.991362
0.812667 0.992204 0.993804
0.864870 0.992203 0.993256
0.947163 0.992203 0.992203
0.992203 0.992203 0.992203
0.992203 0.992203 0.992203
0.992203 0.992203 0.993068
0.144947 0.364682 0.707989
0.157241 0.400671 0.747654
0.169210 0.434961 0.788519
0.422120 0.471449 0.847623
0.739926 0.449559 0.884760
0.840872 0.301646 0.852278
0.854150 0.266182 0.841972
0.854150 0.266182 0.841972
0.854150 0.266182 0.841972
0.148377 0.376349 0.712623
0.160944 0.413303 0.751747
0.173466 0.449509 0.792466
0.416029 0.488672 0.851491
0.740066 0.470617 0.890689
0.848829 0.336521 0.864311
0.854150 0.266182 0.841972
0.854150 0.266182 0.841972
0.854150 0.266182 0.841972
0.153507 0.393618 0.719541
0.166704 0.432801 0.757909
0.179833 0.471046 0.798313
0.407034 0.514368 0.857161
0.740102 0.501327 0.898855
0.861977 0.393023 0.883144
0.854150 0.266182 0.841972
0.854150 0.266182 0.841972
0.854150 0.266182 0.841972
0.167931 0.441486 0.737726
0.182001 0.483701 0.773486
0.197236 0.528878 0.813444
0.380747 0.582036 0.872182
0.739963 0.583050 0.919069
0.882961 0.496613 0.914139
0.854149 0.266181 0.841972
0.854150 0.266182 0.841972
0.854150 0.266182 0.841972
0.198392 0.539827 0.773416
0.212707 0.582965 0.803386
0.230198 0.635510 0.839388
0.299220 0.708324 0.896864
0.732438 0.747815 0.952438
0.914398 0.699257 0.961345
0.935837 0.564810 0.935795
0.854150 0.266182 0.841972
0.854150 0.266182 0.841972
0.236388 0.658683 0.819322
0.250067 0.699945 0.843174
0.264943 0.744830 0.867922
0.298442 0.827211 0.917516
0.701794 0.911207 0.977052
0.932146 0.926428 0.992205
0.992207 0.896258 0.992205
0.965356 0.667992 0.959601
0.854150 0.266182 0.841972
0.282972 0.800260 0.887640
0.288533 0.816983 0.896439
0.296230 0.840033 0.909296
0.331365 0.893323 0.939930
0.681964 0.968566 0.985338
0.915311 0.992203 0.992203
0.992203 0.992203 0.992203
0.992203 0.992205 0.992203
0.992225 0.861835 0.994824
0.333033 0.906469 0.945674
0.353192 0.912810 0.949278
0.398165 0.922208 0.954660
0.528253 0.946135 0.968597
0.713406 0.986136 0.992179
0.896610 0.992203 0.992203
0.992203 0.992203 0.992203
0.992203 0.992203 0.992203
0.992203 0.992203 0.992203
0.781259 0.992210 0.992207
0.786476 0.992209 0.992206
0.794540 0.992207 0.992205
0.816262 0.992203 0.992203
0.866000 0.992203 0.992203
0.945668 0.992203 0.992203
0.992203 0.992203 0.992203
0.992203 0.992203 0.992203
0.992203 0.992203 0.992203
0.224096 0.617088 0.827631
0.232216 0.641479 0.844044
0.241924 0.670347 0.865313
0.412239 0.721513 0.911004
0.751992 0.745271 0.953975
0.915759 0.695956 0.960886
0.935663 0.563666 0.935552
0.854150 0.266182 0.841972
0.854150 0.266182 0.841972
0.225578 0.621799 0.828930
0.233715 0.646251 0.845217
0.243485 0.675323 0.866358
0.408975 0.727171 0.911957
0.751419 0.752783 0.955307
0.917045 0.705480 0.962666
0.938766 0.577817 0.938701
0.854150 0.266182 0.841972
0.854150 0.266182 0.841972
0.227737 0.628656 0.830808
0.236006 0.653531 0.847017
0.245874 0.682920 0.867984
0.404055 0.735790 0.913424
0.750553 0.764211 0.957344
0.919003 0.719931 0.965377
0.943386 0.598835 0.943417
0.854150 0.266182 0.841972
0.854150 0.266182 0.841972
0.233795 0.647843 0.836095
0.242122 0.672920 0.851743
0.252298 0.703309 0.872293
0.390414 0.759586 0.917439
0.747643 0.795166 0.962628
0.923543 0.760271 0.972813
0.956160 0.657011 0.956636
0.854150 0.266182 0.841972
0.854150 0.266182 0.841972
0.246977 0.689321 0.847657
0.255356 0.714614 0.862058
0.265969 0.746423 0.881542
0.367809 0.808614 0.925038
0.739113 0.861549 0.972971
0.931446 0.848922 0.988286
0.980855 0.782786 0.982048
0.854191 0.266313 0.842019
0.854150 0.266182 0.841972
0.267283 0.752419 0.867423
0.274301 0.773580 0.878654
0.284121 0.803012 0.895500
0.354270 0.865610 0.933722
0.716158 0.936838 0.982452
0.933490 0.958179 0.992203
0.992203 0.944012 0.992203
0.993466 0.823003 0.990590
0.854150 0.266182 0.841972
0.295912 0.839108 0.908531
0.300177 0.851854 0.915807
0.306186 0.869788 0.926188
0.402529 0.912445 0.950718
0.702890 0.974531 0.988470
0.917020 0.992203 0.992203
0.992203 0.992203 0.992203
0.992203 0.992203 0.992203
0.992203 0.921000 0.992209
0.393490 0.921350 0.954165
0.425903 0.926993 0.957423
0.468288 0.934891 0.962014
0.571873 0.955111 0.973872
0.730614 0.989823 0.994356
0.900503 0.992203 0.992203
0.992203 0.992203 0.992203
0.992203 0.992203 0.992203
0.992203 0.992203 0.992203
0.794039 0.992207 0.992205
0.799027 0.992206 0.992204
0.806381 0.992204 0.992203
0.825866 0.992203 0.992203
0.872304 0.992203 0.992203
0.948274 0.992203 0.992203
0.992203 0.992203 0.992203
0.992203 0.992203 0.992203
0.992203 0.992203 0.992203
