files/I001C001_180615OL.cube
TITLE Sony RAW Viewer Version 2.3.0.09150
LUT_3D_SIZE 5
0.040000 0.038869 0.029575
0.121772 0.031731 0.034758
0.548028 0.114756 0.114759
0.633829 0.132722 0.132726
0.633829 0.132722 0.132726
0.042558 0.126211 0.042735
0.133181 0.145221 0.053166
0.532446 0.111493 0.111496
0.633829 0.132722 0.132726
0.633829 0.132722 0.132726
0.135279 0.401200 0.135264
0.169737 0.492902 0.166259
0.799760 0.733312 0.279525
0.891188 0.370882 0.208328
0.633829 0.132722 0.132726
0.215855 0.639731 0.234554
0.250986 0.688504 0.238153
0.732530 0.824123 0.299911
0.992203 0.860060 0.340153
0.992203 0.834770 0.334944
0.781764 0.980986 0.847517
0.795619 0.983622 0.847365
0.872894 0.994722 0.843977
0.992203 0.992203 0.798573
0.992203 0.865830 0.343677
0.030627 0.037183 0.185024
0.138485 0.037047 0.200743
0.566453 0.118666 0.125173
0.633829 0.132722 0.132726
0.633829 0.132722 0.132726
0.040234 0.112848 0.133865
0.105749 0.114910 0.116537
0.533307 0.111676 0.112077
0.633829 0.132722 0.132726
0.633829 0.132722 0.132726
0.139128 0.412601 0.139838
0.165018 0.489400 0.165000
0.784357 0.683357 0.264288
0.892653 0.374123 0.209097
0.633829 0.132722 0.132726
0.225415 0.664903 0.343264
0.242503 0.714915 0.335097
0.722420 0.855934 0.309832
0.992203 0.860221 0.340250
0.992203 0.834823 0.334959
0.781497 0.981901 0.854692
0.795338 0.984562 0.854737
0.872514 0.993669 0.852266
0.992203 0.992203 0.808780
0.992203 0.865845 0.343681
0.073834 0.073740 0.553874
0.228952 0.092684 0.639307
0.699357 0.164638 0.701895
0.705616 0.160390 0.602452
0.633829 0.132722 0.132726
0.084306 0.147763 0.568879
0.145163 0.085919 0.585010
0.615671 0.144398 0.608670
0.706045 0.160529 0.603647
0.633829 0.132722 0.132726
0.185161 0.515651 0.643872
0.208061 0.586976 0.664770
0.742658 0.735174 0.697056
0.824567 0.222217 0.538809
0.633829 0.132722 0.132726
0.257255 0.741296 0.671652
0.273967 0.792306 0.681580
0.690480 0.934063 0.681615
0.992203 0.974270 0.533228
0.992203 0.835227 0.335072
0.779420 0.987440 0.899193
0.793297 0.990134 0.899590
0.870431 0.992204 0.899973
0.992203 0.992203 0.872672
0.992203 0.970425 0.462258
0.114758 0.258834 0.657414
0.139148 0.281592 0.727687
0.735844 0.227490 0.811391
0.854150 0.266182 0.841972
0.854150 0.266182 0.841972
0.133984 0.326922 0.691999
0.150933 0.373117 0.762292
0.733059 0.326910 0.845598
0.854150 0.266182 0.841972
0.854150 0.266182 0.841972
0.193027 0.523785 0.761073
0.224110 0.617117 0.827745
0.735624 0.742336 0.951742
0.916935 0.481553 0.915339
0.854150 0.266182 0.841972
0.278173 0.786335 0.875579
0.292926 0.830774 0.898178
0.671255 0.967661 0.974074
0.992203 0.992203 0.992203
0.992234 0.866933 0.976232
0.775504 0.994254 0.989900
0.789248 0.992209 0.991362
0.864870 0.992203 0.993256
0.992203 0.992203 0.992203
0.992203 0.992203 0.993068
0.224096 0.617088 0.827631
0.241924 0.670347 0.865313
0.751992 0.745271 0.953975
0.935663 0.563666 0.935552
0.854150 0.266182 0.841972
0.227737 0.628656 0.830808
0.245874 0.682920 0.867984
0.750553 0.764211 0.957344
0.943386 0.598835 0.943417
0.854150 0.266182 0.841972
0.246977 0.689321 0.847657
0.265969 0.746423 0.881542
0.739113 0.861549 0.972971
0.980855 0.782786 0.982048
0.854150 0.266182 0.841972
0.295912 0.839108 0.908531
0.306186 0.869788 0.926188
0.702890 0.974531 0.988470
0.992203 0.992203 0.992203
0.992203 0.921000 0.992209
0.794039 0.992207 0.992205
0.806381 0.992204 0.992203
0.872304 0.992203 0.992203
0.992203 0.992203 0.992203
0.992203 0.992203 0.992203
