files/I001C001_180615OL.cube
TITLE Sony RAW Viewer Version 2.3.0.09150
LUT_3D_SIZE 33
0.040000 0.038869 0.029575
0.040000 0.038869 0.029575
0.042138 0.038932 0.029656
0.045438 0.039342 0.029823
0.049018 0.039463 0.029965
0.053550 0.039615 0.030062
0.061991 0.039777 0.030333
0.079831 0.038173 0.031214
0.121772 0.031731 0.034758
0.171628 0.036125 0.041128
0.231288 0.048442 0.049839
0.302798 0.063405 0.063437
0.365784 0.076594 0.076596
0.423853 0.088753 0.088756
0.476569 0.099792 0.099795
0.514765 0.107791 0.107794
0.548028 0.114756 0.114759
0.575793 0.120570 0.120573
0.596821 0.124973 0.124976
0.609723 0.127674 0.127677
0.619356 0.129691 0.129694
0.626924 0.131277 0.131280
0.633224 0.132596 0.132599
0.633829 0.132722 0.132726
0.633829 0.132722 0.132726
0.633829 0.132722 0.132726
0.633829 0.132722 0.132726
0.633829 0.132722 0.132726
0.633829 0.132722 0.132726
0.633829 0.132722 0.132726
0.633829 0.132722 0.132726
0.633829 0.132722 0.132726
0.633829 0.132722 0.132726
0.040000 0.038869 0.029575
0.040000 0.038869 0.029575
0.041332 0.038904 0.029624
0.044621 0.039300 0.029786
0.048288 0.039440 0.029937
0.052505 0.039579 0.030040
0.059865 0.039758 0.030245
0.076035 0.038624 0.030994
0.114578 0.032368 0.034021
0.166719 0.035230 0.040419
0.229023 0.047969 0.049475
0.303082 0.063464 0.063495
0.365955 0.076630 0.076632
0.423984 0.088781 0.088783
0.476638 0.099806 0.099809
0.514809 0.107800 0.107803
0.548058 0.114762 0.114765
0.575810 0.120573 0.120577
0.596829 0.124974 0.124978
0.609727 0.127675 0.127678
0.619358 0.129691 0.129695
0.626926 0.131277 0.131281
0.633225 0.132596 0.132600
0.633829 0.132722 0.132726
0.633829 0.132722 0.132726
0.633829 0.132722 0.132726
0.633829 0.132722 0.132726
0.633829 0.132722 0.132726
0.633829 0.132722 0.132726
0.633829 0.132722 0.132726
0.633829 0.132722 0.132726
0.633829 0.132722 0.132726
0.633829 0.132722 0.132726
0.040243 0.042133 0.029947
0.040192 0.041471 0.029867
0.041054 0.041085 0.029804
0.046772 0.041860 0.029932
0.048819 0.040726 0.029941
0.051463 0.039543 0.030019
0.058109 0.039731 0.030183
0.072164 0.039116 0.030793
0.105893 0.033479 0.033199
0.157115 0.033657 0.039096
0.215384 0.045119 0.047416
0.292728 0.061297 0.061372
0.364503 0.076326 0.076328
0.424115 0.088808 0.088811
0.476707 0.099821 0.099824
0.514853 0.107809 0.107812
0.548087 0.114768 0.114771
0.575828 0.120577 0.120580
0.596836 0.124976 0.124979
0.609732 0.127676 0.127679
0.619361 0.129692 0.129696
0.626927 0.131277 0.131281
0.633226 0.132596 0.132600
0.633829 0.132722 0.132726
0.633829 0.132722 0.132726
0.633829 0.132722 0.132726
0.633829 0.132722 0.132726
0.633829 0.132722 0.132726
0.633829 0.132722 0.132726
0.633829 0.132722 0.132726
0.633829 0.132722 0.132726
0.633829 0.132722 0.132726
0.633829 0.132722 0.132726
0.040566 0.046091 0.030620
0.040517 0.045452 0.030503
0.040466 0.044856 0.030390
0.049379 0.047317 0.030383
0.055221 0.048184 0.030363
0.058342 0.047636 0.030350
0.063878 0.046769 0.030469
0.074855 0.045316 0.030826
0.102858 0.038528 0.032364
0.147518 0.032381 0.037871
0.204277 0.042801 0.045673
0.278602 0.058340 0.058520
0.352950 0.073907 0.073909
0.420155 0.087979 0.087982
0.476777 0.099835 0.099838
0.514897 0.107818 0.107821
0.548116 0.114774 0.114777
0.575845 0.120580 0.120584
0.596844 0.124978 0.124981
0.609737 0.127677 0.127680
0.619364 0.129692 0.129696
0.626929 0.131278 0.131281
0.633227 0.132597 0.132600
0.633829 0.132722 0.132726
0.633829 0.132722 0.132726
0.633829 0.132722 0.132726
0.633829 0.132722 0.132726
0.633829 0.132722 0.132726
0.633829 0.132722 0.132726
0.633829 0.132722 0.132726
0.633829 0.132722 0.132726
0.633829 0.132722 0.132726
0.633829 0.132722 0.132726
0.040853 0.050371 0.031305
0.040805 0.049600 0.031191
0.040760 0.048830 0.031079
0.047801 0.050784 0.030917
0.056541 0.053035 0.031017
0.063424 0.054621 0.031214
0.070050 0.054500 0.031330
0.081453 0.053982 0.031609
0.108406 0.051236 0.032479
0.155816 0.044251 0.034344
0.205737 0.043450 0.043114
0.264502 0.055389 0.055746
0.340671 0.071335 0.071338
0.408582 0.085556 0.085558
0.474375 0.099333 0.099336
0.514942 0.107828 0.107831
0.548145 0.114780 0.114784
0.575862 0.120584 0.120587
0.596851 0.124979 0.124983
0.609742 0.127678 0.127681
0.619366 0.129693 0.129697
0.626930 0.131278 0.131282
0.633228 0.132597 0.132600
0.633829 0.132722 0.132726
0.633829 0.132722 0.132726
0.633829 0.132722 0.132726
0.633829 0.132722 0.132726
0.633829 0.132722 0.132726
0.633829 0.132722 0.132726
0.633829 0.132722 0.132726
0.633829 0.132722 0.132726
0.633829 0.132722 0.132726
0.633829 0.132722 0.132726
0.040644 0.055935 0.031975
0.040850 0.054927 0.031899
0.040857 0.054052 0.031784
0.046365 0.055759 0.031541
0.055482 0.058135 0.031658
0.064418 0.060362 0.032028
0.074388 0.062110 0.032433
0.088148 0.062901 0.032886
0.112272 0.062518 0.033594
0.162885 0.059959 0.037512
0.215332 0.052428 0.045675
0.275543 0.057707 0.057700
0.338073 0.070791 0.070793
0.397009 0.083133 0.083135
0.464680 0.097303 0.097306
0.514984 0.107836 0.107839
0.548175 0.114787 0.114790
0.575879 0.120588 0.120591
0.596859 0.124981 0.124984
0.609747 0.127679 0.127682
0.619369 0.129694 0.129697
0.626932 0.131278 0.131282
0.633229 0.132597 0.132601
0.633829 0.132722 0.132726
0.633829 0.132722 0.132726
0.633829 0.132722 0.132726
0.633829 0.132722 0.132726
0.633829 0.132722 0.132726
0.633829 0.132722 0.132726
0.633829 0.132722 0.132726
0.633829 0.132722 0.132726
0.633829 0.132722 0.132726
0.633829 0.132722 0.132726
0.036561 0.065378 0.032493
0.037404 0.063797 0.032413
0.038296 0.062207 0.032347
0.042635 0.062354 0.031707
0.054888 0.066183 0.031816
0.064499 0.069255 0.032387
0.077102 0.072887 0.033114
0.095386 0.076392 0.034110
0.121582 0.078009 0.035334
0.169976 0.079351 0.041272
0.227153 0.075659 0.050369
0.287043 0.061617 0.060218
0.355083 0.074354 0.074356
0.403338 0.084458 0.084461
0.451468 0.094536 0.094538
0.506976 0.106160 0.106162
0.548210 0.114793 0.114796
0.575901 0.120592 0.120595
0.596868 0.124983 0.124986
0.609753 0.127680 0.127684
0.619372 0.129694 0.129698
0.626934 0.131279 0.131282
0.633231 0.132597 0.132601
0.633829 0.132722 0.132726
0.633829 0.132722 0.132726
0.633829 0.132722 0.132726
0.633829 0.132722 0.132726
0.633829 0.132722 0.132726
0.633829 0.132722 0.132726
0.633829 0.132722 0.132726
0.633829 0.132722 0.132726
0.633829 0.132722 0.132726
0.633829 0.132722 0.132726
0.031268 0.091442 0.034964
0.030367 0.087827 0.034476
0.029591 0.084198 0.034074
0.029569 0.081165 0.033697
0.044601 0.086626 0.029864
0.059493 0.089958 0.031484
0.076505 0.093521 0.033662
0.098207 0.097517 0.036514
0.126293 0.100539 0.040033
0.173541 0.104377 0.046784
0.237602 0.107048 0.056913
0.304892 0.104729 0.068018
0.378590 0.088058 0.079956
0.432172 0.090496 0.090498
0.471116 0.098650 0.098653
0.494031 0.103448 0.103451
0.541344 0.113356 0.113359
0.575931 0.120598 0.120602
0.596881 0.124985 0.124989
0.609761 0.127682 0.127685
0.619377 0.129695 0.129699
0.626937 0.131279 0.131283
0.633233 0.132598 0.132601
0.633829 0.132722 0.132726
0.633829 0.132722 0.132726
0.633829 0.132722 0.132726
0.633829 0.132722 0.132726
0.633829 0.132722 0.132726
0.633829 0.132722 0.132726
0.633829 0.132722 0.132726
0.633829 0.132722 0.132726
0.633829 0.132722 0.132726
0.633829 0.132722 0.132726
0.042558 0.126211 0.042735
0.041362 0.122662 0.041678
0.040169 0.119119 0.040680
0.038973 0.115566 0.039745
0.040782 0.120591 0.040660
0.044293 0.126375 0.042645
0.059140 0.132294 0.044992
0.097556 0.140566 0.049338
0.133181 0.145221 0.053166
0.179190 0.148213 0.058251
0.243374 0.151532 0.066765
0.313802 0.150493 0.076801
0.394525 0.144087 0.089183
0.467948 0.132941 0.101093
0.517003 0.113089 0.108620
0.538669 0.112796 0.112799
0.532446 0.111493 0.111496
0.571406 0.119651 0.119654
0.596898 0.124989 0.124992
0.609772 0.127684 0.127688
0.619383 0.129697 0.129700
0.626940 0.131280 0.131284
0.633235 0.132598 0.132602
0.633829 0.132722 0.132726
0.633829 0.132722 0.132726
0.633829 0.132722 0.132726
0.633829 0.132722 0.132726
0.633829 0.132722 0.132726
0.633829 0.132722 0.132726
0.633829 0.132722 0.132726
0.633829 0.132722 0.132726
0.633829 0.132722 0.132726
0.633829 0.132722 0.132726
0.058277 0.172834 0.058270
0.056624 0.167933 0.056618
0.054970 0.163025 0.054964
0.053312 0.158108 0.053306
0.054229 0.160827 0.054223
0.056903 0.168761 0.056897
0.059717 0.177048 0.059691
0.078317 0.188908 0.064059
0.137215 0.198688 0.069699
0.185394 0.205151 0.074891
0.251656 0.212646 0.083009
0.324353 0.216685 0.092400
0.407922 0.214646 0.103493
0.492233 0.202690 0.114717
0.552942 0.176151 0.121615
0.596733 0.144288 0.126490
0.606857 0.127128 0.127082
0.576546 0.120727 0.120731
0.593813 0.124343 0.124346
0.609787 0.127687 0.127691
0.619391 0.129698 0.129702
0.626945 0.131281 0.131285
0.633239 0.132599 0.132603
0.633829 0.132722 0.132726
0.633829 0.132722 0.132726
0.633829 0.132722 0.132726
0.633829 0.132722 0.132726
0.633829 0.132722 0.132726
0.633829 0.132722 0.132726
0.633829 0.132722 0.132726
0.633829 0.132722 0.132726
0.633829 0.132722 0.132726
0.633829 0.132722 0.132726
0.076296 0.226276 0.076288
0.074904 0.222147 0.074896
0.073405 0.217699 0.073397
0.071802 0.212946 0.071794
0.072237 0.214235 0.072229
0.075202 0.223029 0.075194
0.078483 0.232759 0.078474
0.084116 0.245809 0.082901
0.138457 0.259877 0.089186
0.190918 0.270730 0.095195
0.258479 0.282493 0.103374
0.335091 0.291341 0.112745
0.419764 0.294557 0.122986
0.513343 0.292476 0.134856
0.585434 0.272584 0.141791
0.639449 0.238583 0.145267
0.669357 0.188134 0.144392
0.668316 0.141409 0.140053
0.620307 0.129891 0.129894
0.608387 0.127395 0.127398
0.619402 0.129701 0.129704
0.626951 0.131282 0.131286
0.633243 0.132600 0.132604
0.633829 0.132722 0.132726
0.633829 0.132722 0.132726
0.633829 0.132722 0.132726
0.633829 0.132722 0.132726
0.633829 0.132722 0.132726
0.633829 0.132722 0.132726
0.633829 0.132722 0.132726
0.633829 0.132722 0.132726
0.633829 0.132722 0.132726
0.633829 0.132722 0.132726
0.091494 0.271347 0.091484
0.090290 0.267776 0.090280
0.089085 0.264202 0.089075
0.087879 0.260626 0.087869
0.088077 0.261212 0.088067
0.092327 0.273817 0.092316
0.096452 0.286050 0.096441
0.102094 0.301488 0.101655
0.143503 0.320532 0.109016
0.197531 0.337198 0.116489
0.263573 0.355426 0.125747
0.345210 0.373366 0.136910
0.431150 0.386270 0.148188
0.529829 0.393536 0.160637
0.615140 0.385645 0.169351
0.676984 0.358063 0.172125
0.722868 0.314123 0.171168
0.736504 0.253276 0.164345
0.725382 0.169996 0.153302
0.667156 0.139701 0.139705
0.618825 0.129581 0.129584
0.626959 0.131284 0.131288
0.633249 0.132601 0.132605
0.633829 0.132722 0.132726
0.633829 0.132722 0.132726
0.633829 0.132722 0.132726
0.633829 0.132722 0.132726
0.633829 0.132722 0.132726
0.633829 0.132722 0.132726
0.633829 0.132722 0.132726
0.633829 0.132722 0.132726
0.633829 0.132722 0.132726
0.633829 0.132722 0.132726
0.105237 0.312106 0.105226
0.104226 0.309107 0.104215
0.103215 0.306107 0.103204
0.102154 0.302960 0.102143
0.101824 0.301981 0.101812
0.107220 0.317987 0.107208
0.112014 0.332204 0.112002
0.118098 0.349760 0.117924
0.148184 0.372631 0.126184
0.202218 0.393719 0.134821
0.266253 0.416019 0.144808
0.348856 0.439769 0.157041
0.436675 0.461199 0.169944
0.537346 0.479767 0.184235
0.633424 0.490162 0.197065
0.706711 0.480155 0.203242
0.765366 0.455610 0.205290
0.796725 0.406068 0.199541
0.802121 0.329702 0.186843
0.782574 0.230889 0.169989
0.716685 0.150080 0.150076
0.626973 0.131286 0.131290
0.633257 0.132603 0.132606
0.633829 0.132722 0.132726
0.633829 0.132722 0.132726
0.633829 0.132722 0.132726
0.633829 0.132722 0.132726
0.633829 0.132722 0.132726
0.633829 0.132722 0.132726
0.633829 0.132722 0.132726
0.633829 0.132722 0.132726
0.633829 0.132722 0.132726
0.633829 0.132722 0.132726
0.115798 0.343426 0.115785
0.115059 0.341234 0.115046
0.114319 0.339042 0.114307
0.113580 0.336849 0.113567
0.113335 0.336122 0.113323
0.119992 0.355864 0.119978
0.125723 0.372860 0.125709
0.132680 0.393332 0.132612
0.153748 0.419371 0.141675
0.206072 0.444570 0.151434
0.267114 0.470661 0.162211
0.349544 0.499040 0.175339
0.438033 0.525577 0.189131
0.538083 0.550198 0.204163
0.640791 0.569238 0.218908
0.722313 0.574630 0.228791
0.790145 0.564695 0.234019
0.837456 0.540397 0.234094
0.862335 0.497565 0.227873
0.868301 0.425283 0.214163
0.838971 0.310271 0.190200
0.759191 0.160415 0.159082
0.633286 0.132608 0.132612
0.633829 0.132722 0.132726
0.633829 0.132722 0.132726
0.633829 0.132722 0.132726
0.633829 0.132722 0.132726
0.633829 0.132722 0.132726
0.633829 0.132722 0.132726
0.633829 0.132722 0.132726
0.633829 0.132722 0.132726
0.633829 0.132722 0.132726
0.633829 0.132722 0.132726
0.123194 0.365359 0.123180
0.122653 0.363756 0.122640
0.122112 0.362152 0.122099
0.121553 0.360492 0.121539
0.121884 0.361476 0.121870
0.128798 0.381980 0.128783
0.134849 0.399926 0.134834
0.142138 0.421479 0.142101
0.159318 0.450720 0.152124
0.208313 0.479292 0.162816
0.266508 0.508033 0.174183
0.347323 0.540404 0.188180
0.435479 0.571427 0.202898
0.533315 0.600360 0.218456
0.639270 0.626706 0.234834
0.728223 0.645004 0.248256
0.804018 0.652861 0.258144
0.863140 0.644815 0.262629
0.899077 0.620975 0.261003
0.921351 0.580448 0.254299
0.925503 0.521725 0.241948
0.893966 0.411209 0.215620
0.801115 0.208786 0.171184
0.633870 0.132730 0.132734
0.633829 0.132722 0.132726
0.633829 0.132722 0.132726
0.633829 0.132722 0.132726
0.633829 0.132722 0.132726
0.633829 0.132722 0.132726
0.633829 0.132722 0.132726
0.633829 0.132722 0.132726
0.633829 0.132722 0.132726
0.633829 0.132722 0.132726
0.129515 0.384104 0.129500
0.129007 0.382598 0.128992
0.128499 0.381092 0.128484
0.127991 0.379585 0.127977
0.129761 0.384836 0.129746
0.136223 0.404001 0.136208
0.142279 0.421962 0.142263
0.149535 0.443449 0.149508
0.164260 0.473428 0.159718
0.209036 0.502909 0.170554
0.263989 0.531240 0.181580
0.342432 0.564542 0.195575
0.430384 0.598257 0.210859
0.524795 0.630456 0.226826
0.630183 0.660430 0.243757
0.724667 0.684740 0.258945
0.803019 0.702384 0.271330
0.871369 0.708961 0.280141
0.917811 0.704213 0.283993
0.951988 0.688780 0.284039
0.973004 0.660964 0.279796
0.972567 0.608491 0.267472
0.944074 0.515929 0.243412
0.846055 0.284303 0.187929
0.633902 0.132737 0.132741
0.633829 0.132722 0.132726
0.633829 0.132722 0.132726
0.633829 0.132722 0.132726
0.633829 0.132722 0.132726
0.633829 0.132722 0.132726
0.633829 0.132722 0.132726
0.633829 0.132722 0.132726
0.633829 0.132722 0.132726
0.135279 0.401200 0.135264
0.134794 0.399761 0.134779
0.134302 0.398301 0.134287
0.133810 0.396842 0.133795
0.137632 0.408180 0.137616
0.143366 0.425184 0.143350
0.149201 0.442492 0.149185
0.156237 0.463326 0.156210
0.169737 0.492902 0.166259
0.210863 0.522446 0.177001
0.263595 0.550442 0.187787
0.337550 0.583413 0.201356
0.424818 0.618236 0.216755
0.517160 0.652030 0.232834
0.621423 0.684809 0.250191
0.718469 0.712246 0.266179
0.799760 0.733312 0.279525
0.871529 0.749851 0.291094
0.924540 0.753162 0.297484
0.962698 0.748706 0.300472
0.993731 0.739086 0.301533
0.992204 0.721508 0.299034
0.992212 0.686611 0.290425
0.983681 0.602068 0.267509
0.891188 0.370882 0.208328
0.633932 0.132744 0.132747
0.633829 0.132722 0.132726
0.633829 0.132722 0.132726
0.633829 0.132722 0.132726
0.633829 0.132722 0.132726
0.633829 0.132722 0.132726
0.633829 0.132722 0.132726
0.633829 0.132722 0.132726
0.140307 0.416111 0.140291
0.139884 0.414858 0.139869
0.139462 0.413606 0.139446
0.139034 0.412337 0.139019
0.145679 0.432046 0.145663
0.150512 0.446378 0.150495
0.156115 0.462996 0.156097
0.162869 0.482937 0.162822
0.176514 0.511237 0.172454
0.217096 0.539833 0.182869
0.268127 0.566712 0.193224
0.337254 0.598141 0.206050
0.421904 0.632650 0.221106
0.511297 0.666708 0.236933
0.612610 0.701086 0.254341
0.711193 0.730797 0.270882
0.794008 0.753834 0.284725
0.867463 0.772783 0.296944
0.925459 0.785620 0.306237
0.967007 0.787844 0.311171
0.992212 0.786987 0.314736
0.992203 0.779317 0.315227
0.992203 0.764739 0.312625
0.992203 0.738893 0.306087
0.992216 0.677430 0.289148
0.937269 0.472600 0.233759
0.633962 0.132769 0.132755
0.633829 0.132722 0.132726
0.633829 0.132722 0.132726
0.633829 0.132722 0.132726
0.633829 0.132722 0.132726
0.633829 0.132722 0.132726
0.633829 0.132722 0.132726
0.144398 0.428244 0.144382
0.144000 0.427063 0.143983
0.143614 0.425919 0.143598
0.147748 0.438182 0.147732
0.153251 0.454500 0.153233
0.157776 0.467921 0.157758
0.162730 0.482615 0.162712
0.169498 0.502286 0.169347
0.185004 0.528780 0.178427
0.226681 0.555536 0.188281
0.276083 0.580853 0.198089
0.341130 0.610257 0.210096
0.421964 0.643265 0.224442
0.507398 0.676455 0.239680
0.603858 0.710228 0.256429
0.702992 0.741458 0.273293
0.786024 0.765427 0.287281
0.860082 0.785176 0.299652
0.920266 0.800317 0.309688
0.965299 0.810296 0.316966
0.992212 0.814687 0.322019
0.992203 0.814789 0.325008
0.992203 0.809950 0.325469
0.992203 0.798196 0.322999
0.992203 0.777532 0.317724
0.992203 0.734088 0.305773
0.975296 0.563084 0.257805
0.633999 0.132829 0.132768
0.633829 0.132722 0.132726
0.633829 0.132722 0.132726
0.633829 0.132722 0.132726
0.633829 0.132722 0.132726
0.633829 0.132722 0.132726
0.147772 0.438252 0.147756
0.147492 0.437423 0.147476
0.151066 0.448022 0.151049
0.156595 0.464420 0.156578
0.161029 0.477570 0.161011
0.165133 0.489738 0.165114
0.169434 0.502493 0.169415
0.176910 0.522908 0.176310
0.197356 0.547163 0.184768
0.240215 0.571078 0.193755
0.287677 0.594208 0.202827
0.348863 0.621048 0.213884
0.425183 0.651596 0.227230
0.506005 0.683009 0.241613
0.596868 0.715075 0.257385
0.693922 0.745969 0.273877
0.777099 0.770662 0.287983
0.849937 0.790628 0.300211
0.912803 0.806926 0.310751
0.958962 0.819399 0.318763
0.995107 0.828115 0.325034
0.992203 0.831790 0.329164
0.992203 0.833380 0.331848
0.992203 0.830735 0.332179
0.992203 0.823224 0.330716
0.992203 0.807223 0.326659
0.992203 0.771879 0.316858
0.992285 0.637706 0.278466
0.634038 0.132900 0.132785
0.633829 0.132722 0.132726
0.633829 0.132722 0.132726
0.633829 0.132722 0.132726
0.633829 0.132722 0.132726
0.150478 0.446276 0.150461
0.155703 0.461772 0.155685
0.160573 0.476214 0.160555
0.164773 0.488671 0.164754
0.168590 0.499991 0.168571
0.171898 0.509802 0.171878
0.176563 0.523184 0.176394
0.185150 0.542343 0.182899
0.214847 0.564635 0.190946
0.255916 0.585270 0.198864
0.300394 0.606286 0.207198
0.358333 0.631019 0.217487
0.430048 0.659285 0.229903
0.506581 0.688963 0.243485
0.592064 0.719289 0.258319
0.684952 0.748780 0.273990
0.768771 0.773854 0.288175
0.840490 0.793521 0.300145
0.904183 0.809940 0.310736
0.952507 0.822970 0.319076
0.990899 0.833772 0.325904
0.992203 0.841167 0.331232
0.992203 0.844400 0.334377
0.992203 0.845546 0.336069
0.992203 0.844451 0.336569
0.992203 0.839332 0.335709
0.992203 0.829516 0.333426
0.992203 0.801955 0.325547
0.992264 0.703650 0.297189
0.634085 0.132991 0.132807
0.633829 0.132722 0.132726
0.633829 0.132722 0.132726
0.633829 0.132722 0.132726
0.166495 0.493779 0.166477
0.170091 0.504444 0.170072
0.173547 0.514692 0.173527
0.176736 0.524150 0.176716
0.179336 0.531862 0.179316
0.182955 0.542596 0.182935
0.187121 0.554946 0.187099
0.194197 0.570823 0.192490
0.214178 0.588090 0.198638
0.258371 0.603806 0.204990
0.312354 0.619908 0.212046
0.370636 0.641267 0.221306
0.437493 0.667191 0.232781
0.509392 0.694869 0.245479
0.589659 0.723362 0.259383
0.678045 0.751347 0.274208
0.760619 0.776125 0.288132
0.832076 0.796036 0.300083
0.895714 0.812086 0.310511
0.946462 0.825084 0.319044
0.985057 0.835886 0.325871
0.992203 0.845356 0.331818
0.992203 0.851501 0.335912
0.992203 0.853929 0.338114
0.992203 0.854781 0.339257
0.992203 0.853589 0.339577
0.992203 0.850371 0.339144
0.992203 0.842819 0.337204
0.992203 0.823608 0.331768
0.992238 0.750247 0.310609
0.634133 0.133094 0.132835
0.633829 0.132722 0.132726
0.633829 0.132722 0.132726
0.182620 0.541600 0.182599
0.185449 0.549992 0.185428
0.188095 0.557838 0.188074
0.191537 0.568047 0.191515
0.194740 0.577544 0.194718
0.197753 0.586480 0.197731
0.201288 0.596966 0.201265
0.205741 0.610157 0.205713
0.212692 0.622249 0.209853
0.236784 0.635818 0.214887
0.297674 0.651538 0.221789
0.367530 0.670730 0.230601
0.435567 0.692194 0.240564
0.507404 0.714836 0.251547
0.586158 0.737144 0.263326
0.672423 0.758354 0.275851
0.753928 0.778090 0.288135
0.824852 0.798276 0.300065
0.888123 0.814319 0.310405
0.939637 0.826991 0.318887
0.979454 0.836922 0.325578
0.992205 0.845698 0.331367
0.992203 0.854196 0.336267
0.992203 0.858339 0.339084
0.992203 0.861216 0.340852
0.992203 0.861852 0.341694
0.992203 0.861034 0.342006
0.992203 0.858613 0.341653
0.992203 0.852467 0.339917
0.992203 0.839829 0.336367
0.992214 0.787124 0.321263
0.634176 0.133187 0.132860
0.633829 0.132722 0.132726
0.197965 0.587107 0.198113
0.201035 0.596215 0.201111
0.203946 0.604848 0.203974
0.206726 0.613092 0.206725
0.209354 0.620888 0.209338
0.211846 0.628279 0.211824
0.214439 0.635411 0.214232
0.219012 0.644556 0.217347
0.229532 0.655359 0.221143
0.259760 0.667715 0.225952
0.308660 0.682740 0.232304
0.369898 0.700376 0.240228
0.435067 0.720352 0.249462
0.505136 0.741972 0.259875
0.581040 0.764072 0.271222
0.663437 0.784747 0.283062
0.743449 0.802269 0.294320
0.815204 0.815774 0.304199
0.880227 0.823220 0.312145
0.933598 0.829201 0.318897
0.973954 0.838864 0.325545
0.992208 0.846978 0.331205
0.992203 0.853306 0.335636
0.992203 0.857710 0.338690
0.992203 0.860584 0.340469
0.992203 0.862702 0.341775
0.992203 0.864330 0.342789
0.992203 0.865775 0.343663
0.992203 0.864590 0.343330
0.992203 0.860082 0.342064
0.992203 0.851151 0.339546
0.992203 0.815159 0.329343
0.634187 0.133274 0.132885
0.215855 0.639731 0.234554
0.218198 0.646729 0.234904
0.220124 0.652444 0.235030
0.221936 0.657600 0.235157
0.223781 0.662530 0.235376
0.225685 0.667252 0.235677
0.228627 0.672778 0.236111
0.236084 0.679821 0.236831
0.250986 0.688504 0.238153
0.278618 0.699369 0.240506
0.321857 0.712540 0.244676
0.374795 0.728169 0.250719
0.436252 0.746095 0.258365
0.503548 0.765893 0.267513
0.576741 0.786500 0.277899
0.655367 0.806360 0.289011
0.732530 0.824123 0.299911
0.803399 0.838270 0.309686
0.867953 0.847657 0.317920
0.922858 0.851102 0.323916
0.966564 0.850478 0.327967
0.992212 0.846060 0.330422
0.992203 0.852381 0.334983
0.992203 0.857057 0.338247
0.992203 0.860060 0.340153
0.992203 0.862271 0.341505
0.992203 0.863971 0.342572
0.992203 0.865407 0.343440
0.992203 0.865777 0.343664
0.992203 0.865777 0.343664
0.992203 0.865773 0.343663
0.992203 0.859395 0.341871
0.992203 0.834770 0.334944
0.232360 0.686966 0.309360
0.233814 0.691218 0.308402
0.235361 0.695179 0.307391
0.237096 0.699007 0.306437
0.239064 0.702708 0.305537
0.241297 0.706292 0.304688
0.244500 0.710622 0.303695
0.252908 0.716655 0.302281
0.268739 0.724263 0.300679
0.295087 0.733677 0.299037
0.335326 0.745312 0.297218
0.388318 0.759237 0.295818
0.444859 0.775444 0.294530
0.507430 0.793162 0.293431
0.576486 0.811850 0.294515
0.650549 0.830313 0.298518
0.724364 0.846864 0.306217
0.793669 0.860206 0.315299
0.857094 0.869843 0.323318
0.912167 0.875169 0.329677
0.957544 0.877114 0.334430
0.994772 0.873769 0.337120
0.992203 0.864523 0.337690
0.992203 0.856283 0.337712
0.992203 0.859655 0.339907
0.992203 0.861927 0.341290
0.992203 0.863591 0.342335
0.992203 0.865052 0.343226
0.992203 0.865777 0.343664
0.992203 0.865777 0.343664
0.992203 0.865777 0.343664
0.992203 0.865777 0.343664
0.992203 0.865770 0.343662
0.247423 0.729364 0.373316
0.249191 0.732613 0.372588
0.251527 0.735779 0.371882
0.254472 0.738864 0.371200
0.258026 0.741874 0.370542
0.262176 0.744812 0.369907
0.268154 0.748392 0.369144
0.279432 0.753303 0.368062
0.299307 0.759600 0.366683
0.329631 0.767516 0.365099
0.370016 0.777309 0.363160
0.414214 0.789157 0.360437
0.466108 0.803058 0.357112
0.521326 0.818801 0.352794
0.584190 0.835449 0.347190
0.652105 0.852275 0.337705
0.720688 0.867996 0.326074
0.786404 0.881551 0.323339
0.847912 0.892392 0.329203
0.902900 0.899537 0.335781
0.948103 0.902071 0.340529
0.986507 0.900811 0.343759
0.992203 0.894873 0.345202
0.992203 0.884822 0.344717
0.992203 0.864309 0.340901
0.992203 0.861663 0.341125
0.992203 0.863289 0.342144
0.992203 0.864719 0.343024
